icon-themes/sifr_svg/cmd/lc_tabledialog.svg

<svg viewBox="0 0 24 24" xmlns="http://www.w3.org/2000/svg"><path d="m2 3v19h16.871094l-1.427735-1.427734h-2.328125c-.850015 0-1.774632-.1677-2.697265-.572266h-2.417969v-1.716797-1.283203-1-1-2h4v2.902344c.159551.057111.325522.09752.5.097656.177262 0 .343306-.033667.5-.087891v-2.908203-.003906-1-1-1-1h5v3h-.169922c.532821 1.008819.742188 2.051312.742188 3.115234v2.328125l1.427734 1.427735v-15.871094zm2 2h5v3h-5zm6 0h4v3h-4zm5 0h5v3h-5zm-11 4h5v3h-5zm6 0h4v3h-4zm6 2v1.503906c.628416.471311.998772 1.210576 1 1.996094 0 1.380712-1.119288 2.5-2.5 2.5-.786206-.000614-1.526324-.371035-1.998047-1h-1.501953v1.857422c1.371429 1.321851 2.804414 1.714844 4.115234 1.714844h2.742188l3.427734 3.427734h1.714844v-1.714844l-3.427734-3.427734v-2.742188c0-1.511964-.368607-2.743805-1.714844-4.115234zm-12 2h5v3h-5zm0 4h5v3h-5z" fill="#555753"/></svg>

<svg viewBox="0 0 24 24" xmlns="http://www.w3.org/2000/svg">
  <path
     style="fill:#555753"
     d="M 2 3 L 2 22 L 18.871094 22 L 17.443359 20.572266 L 15.115234 20.572266 C 14.265219 20.572266 13.340602 20.404566 12.417969 20 L 10 20 L 10 18.283203 L 10 17 L 10 16 L 10 15 L 10 13 L 14 13 L 14 15.902344 C 14.159551 15.959455 14.325522 15.999864 14.5 16 C 14.677262 16 14.843306 15.966333 15 15.912109 L 15 13.003906 L 15 13 L 15 12 L 15 11 L 15 10 L 15 9 L 20 9 L 20 12 L 19.830078 12 C 20.362899 13.008819 20.572266 14.051312 20.572266 15.115234 L 20.572266 17.443359 L 22 18.871094 L 22 3 L 2 3 z M 4 5 L 9 5 L 9 8 L 4 8 L 4 5 z M 10 5 L 14 5 L 14 8 L 10 8 L 10 5 z M 15 5 L 20 5 L 20 8 L 15 8 L 15 5 z M 4 9 L 9 9 L 9 12 L 4 12 L 4 9 z M 10 9 L 14 9 L 14 12 L 10 12 L 10 9 z M 16 11 L 16 12.503906 C 16.628416 12.975217 16.998772 13.714482 17 14.5 C 17 15.880712 15.880712 17 14.5 17 C 13.713794 16.999386 12.973676 16.628965 12.501953 16 L 11 16 L 11 17.857422 C 12.371429 19.179273 13.804414 19.572266 15.115234 19.572266 L 17.857422 19.572266 L 21.285156 23 L 23 23 L 23 21.285156 L 19.572266 17.857422 L 19.572266 15.115234 C 19.572266 13.60327 19.203659 12.371429 17.857422 11 L 16 11 z M 4 13 L 9 13 L 9 16 L 4 16 L 4 13 z M 4 17 L 9 17 L 9 20 L 4 20 L 4 17 z "
     />
</svg>
